!!!!SEGMENT: Mou2004-Salva_nos_Domine.krn
!!!id: Mou2004
!!!AGN: Motet
!!!SCT: Zenck (1952)
!!!voices: 6
!!!COM: Jean Mouton
!!!OTL: Salva nos, Domine
**kern	**text	**kern	**text	**kern	**text	**kern	**text	**kern	**text	**kern	**text
*part6	*part6	*part5	*part5	*part4	*part4	*part3	*part3	*part2	*part2	*part1	*part1
*staff6	*staff6	*staff5	*staff5	*staff4	*staff4	*staff3	*staff3	*staff2	*staff2	*staff1	*staff1
*I"Bassus	*	*I"Tenor III	*	*I"Tenor II	*	*I"Tenor I	*	*I"Altus	*	*I"Superius	*
*I'B	*	*I'T. III	*	*I'T. II	*	*I'T. I	*	*I'A	*	*I'S	*
*clefF4	*	*clefGv2	*	*clefGv2	*	*clefGv2	*	*clefGv2	*	*clefG2	*
*k[]	*	*k[]	*	*k[]	*	*k[]	*	*k[]	*	*k[]	*
*C:	*	*C:	*	*C:	*	*C:	*	*C:	*	*C:	*
*M2/1	*	*M2/1	*	*M2/1	*	*M2/1	*	*M2/1	*	*M2/1	*
*met(C|)	*	*met(C|)	*	*met(C|)	*	*met(C|)	*	*met(C|)	*	*met(C|)	*
!!section: Prima pars: Salva nos, Domine
!!!OMD: Prima pars: Salva nos, Domine
=1	=1	=1	=1	=1	=1	=1	=1	=1	=1	=1	=1
!	!	!	!	!	!	!LO:TX:a:t=Canon&colon; tenor I/tenor II at the lower fourth	!	!	!	!	!
0GG	Sal-	1D	Sal-	0r	.	0r	.	0r	.	0r	.
.	.	2E	-va	.	.	.	.	.	.	.	.
.	.	[2G	nos	.	.	.	.	.	.	.	.
=2	=2	=2	=2	=2	=2	=2	=2	=2	=2	=2	=2
1AA	-va	2G]	.	0r	.	0r	.	0r	.	0r	.
.	.	2F	.	.	.	.	.	.	.	.	.
[1C	.	2.G	.	.	.	.	.	.	.	.	.
.	.	4F	.	.	.	.	.	.	.	.	.
=3	=3	=3	=3	=3	=3	=3	=3	=3	=3	=3	=3
1C]	.	2E	.	0r	.	0r	.	0G	Sal-	0r	.
.	.	4D	.	.	.	.	.	.	.	.	.
.	.	4C	.	.	.	.	.	.	.	.	.
2BB	.	2D	.	.	.	.	.	.	.	.	.
[2C	.	[2E	Do-	.	.	.	.	.	.	.	.
=4	=4	=4	=4	=4	=4	=4	=4	=4	=4	=4	=4
2C]	.	2E]	.	0r	.	0r	.	1A	-va	0r	.
2D	.	2F	-mi-	.	.	.	.	.	.	.	.
2E	.	2G	-ne,	.	.	.	.	[1c	nos,	.	.
2F	.	2A	vi-	.	.	.	.	.	.	.	.
=5	=5	=5	=5	=5	=5	=5	=5	=5	=5	=5	=5
2E	.	2G	-gi-	0r	.	0r	.	1c]	.	0g	Sal-
2.C	.	2.E	-lan-	.	.	.	.	.	.	.	.
.	.	.	.	.	.	.	.	2c	Do-	.	.
4D	.	4F	.	.	.	.	.	.	.	.	.
2E	.	2G	.	.	.	.	.	2B	.	.	.
=6	=6	=6	=6	=6	=6	=6	=6	=6	=6	=6	=6
0AA	nos,	2F	.	0r	.	0c	Sal-	2.c	.	1a	.
.	.	2E	.	.	.	.	.	.	.	.	.
.	.	.	.	.	.	.	.	4d	.	.	.
.	.	1A	.	.	.	.	.	2e	.	[1cc	.
.	.	.	.	.	.	.	.	2f	.	.	.
=7	=7	=7	=7	=7	=7	=7	=7	=7	=7	=7	=7
0r	.	1G	-tes,	0G	Sal-	0d	-va	0g	-mi-	2cc]	.
.	.	.	.	.	.	.	.	.	.	4b	.
.	.	.	.	.	.	.	.	.	.	4a	.
.	.	1r	.	.	.	.	.	.	.	1b	-va
=8	=8	=8	=8	=8	=8	=8	=8	=8	=8	=8	=8
1.F	Do-	1r	.	0A	-va	0f	.	1.c	-ne,	1cc	nos,
.	.	1c	vi-	.	.	.	.	.	.	[1a	Do-
2F	-mi-	.	.	.	.	.	.	2A	vi-	.	.
=9	=9	=9	=9	=9	=9	=9	=9	=9	=9	=9	=9
0F	-ne,	2c	-gi-	0c	.	0f	nos,	1A	-gi-	2a]	.
.	.	2A	-lan-	.	.	.	.	.	.	4g	.
.	.	.	.	.	.	.	.	.	.	4f	.
.	.	2.A	-tes,	.	.	.	.	1F	.	1a	.
.	.	8GL	.	.	.	.	.	.	.	.	.
.	.	8FJ	.	.	.	.	.	.	.	.	.
=10	=10	=10	=10	=10	=10	=10	=10	=10	=10	=10	=10
2.C	vi-	1E	.	0c	nos,	1r	.	0G	-lan-	1g	-mi-
4D	-gi-	.	.	.	.	.	.	.	.	.	.
1E	-lan-	1C	cu-	.	.	[1g	Do-	.	.	1e	-ne,
=11	=11	=11	=11	=11	=11	=11	=11	=11	=11	=11	=11
0D	.	1.F	-sto-	1r	.	2g]	.	0A	-tes,	1r	.
.	.	.	.	.	.	2f	-mi-	.	.	.	.
.	.	.	.	[1d	Do-	1f	-ne,	.	.	[1a	vi-
.	.	2G	-di	.	.	.	.	.	.	.	.
=12	=12	=12	=12	=12	=12	=12	=12	=12	=12	=12	=12
1AA	-tes,	0A	nos	2d]	.	0e	.	1r	.	1a]	.
.	.	.	.	2c	-mi-	.	.	.	.	.	.
1r	.	.	.	1c	-ne,	.	.	1e	vi-	1a	-gi-
=13	=13	=13	=13	=13	=13	=13	=13	=13	=13	=13	=13
0GG	vi-	2r	.	0B	.	1r	.	1d	-gi-	1b	-lan-
.	.	2G	dor-	.	.	.	.	.	.	.	.
.	.	1G	-mi-	.	.	1d	vi-	1B	-lan-	[1g	.
=14	=14	=14	=14	=14	=14	=14	=14	=14	=14	=14	=14
1C	-gi-	1E	-en-	1r	.	1.e	-gi-	2.c	-tes,	1g]	.
.	.	.	.	.	.	.	.	4d	.	.	.
1AA	-lan-	1C	.	1A	vi-	.	.	1e	.	[1cc	.
.	.	.	.	.	.	2c	.	.	.	.	.
=15	=15	=15	=15	=15	=15	=15	=15	=15	=15	=15	=15
0GG	-tes,	0G	-tes,	1.B	-gi-	0d	-lan-	2r	.	2cc]	.
.	.	.	.	.	.	.	.	2g	vi-	4b	.
.	.	.	.	.	.	.	.	.	.	4a	.
.	.	.	.	.	.	.	.	1g	-gi-	2.b	.
.	.	.	.	2G	.	.	.	.	.	.	.
.	.	.	.	.	.	.	.	.	.	8aL	.
.	.	.	.	.	.	.	.	.	.	8bJ	.
=16	=16	=16	=16	=16	=16	=16	=16	=16	=16	=16	=16
0r	.	1r	.	0A	-lan-	0c	-tes,	1e	.	2cc	-tes,
.	.	.	.	.	.	.	.	.	.	2c	cu-
.	.	1A	cu-	.	.	.	.	2.c	-lan-	2e	-sto-
.	.	.	.	.	.	.	.	.	.	2f	-di
.	.	.	.	.	.	.	.	4d	.	.	.
=17	=17	=17	=17	=17	=17	=17	=17	=17	=17	=17	=17
0r	.	0B	-sto-	0G	-tes,	0r	.	2e	.	1g	nos,
.	.	.	.	.	.	.	.	2d	.	.	.
.	.	.	.	.	.	.	.	[1g	-tes	2r	.
.	.	.	.	.	.	.	.	.	.	2d	cu-
=18	=18	=18	=18	=18	=18	=18	=18	=18	=18	=18	=18
1C	cu-	0c	-di,	0r	.	0r	.	1g]	.	2.e	-sto-
.	.	.	.	.	.	.	.	.	.	4f	-di
2.E	-sto-	.	.	.	.	.	.	1G	cu-	1g	nos
4F	-di	.	.	.	.	.	.	.	.	.	.
=19	=19	=19	=19	=19	=19	=19	=19	=19	=19	=19	=19
1G	nos	0r	.	0r	.	0r	.	2.B	-sto-	2g	[dor-
.	.	.	.	.	.	.	.	.	.	2d	-mi-
.	.	.	.	.	.	.	.	4c	-di	.	.
2F	dor-	.	.	.	.	.	.	1d	nos	2.f	-en-
2D	-mi	.	.	.	.	.	.	.	.	.	.
.	.	.	.	.	.	.	.	.	.	4g	.
=20	=20	=20	=20	=20	=20	=20	=20	=20	=20	=20	=20
1F	en	1r	.	0r	.	1c	cu-	2c	dor-	1a	.
.	.	.	.	.	.	.	.	2A	-mi-	.	.
2E	.	1C	cu-	.	.	2e	-sto-	1c	-en-	2g	.
2A	.	.	.	.	.	2f	-di	.	.	2a	.
=21	=21	=21	=21	=21	=21	=21	=21	=21	=21	=21	=21
2G	.	2.E	-sto-	1G	cu-	0g	nos	1B	-tes:	1b	.
1G	tes:	.	.	.	.	.	.	.	.	.	.
.	.	4F	-di	.	.	.	.	.	.	.	.
.	.	1G	nos	2B	-sto-	.	.	2r	.	1g	-tes,]
4F	.	.	.	2c	-di	.	.	2G	ut	.	.
4E	.	.	.	.	.	.	.	.	.	.	.
=22	=22	=22	=22	=22	=22	=22	=22	=22	=22	=22	=22
0D	.	2r	.	0d	nos	2f	dor-	1.A	vi-	1r	.
.	.	1F	dor-	.	.	2d	-mi-	.	.	.	.
.	.	.	.	.	.	1f	-en-	.	.	[1a	dor-
.	.	2D	-mi-	.	.	.	.	2B	-gi-	.	.
=23	=23	=23	=23	=23	=23	=23	=23	=23	=23	=23	=23
1r	.	1A	-en-	2c	dor-	0e	-tes:	1c	-le-	2a]	.
.	.	.	.	2A	-mi-	.	.	.	.	2a	-mi-
1AA	ut	1E	-tes:	1c	-en-	.	.	2A	-mus	1a	-en-
.	.	.	.	.	.	.	.	2A	cum	.	.
=24	=24	=24	=24	=24	=24	=24	=24	=24	=24	=24	=24
1.E	vi-	2r	.	0B	-tes:	1r	.	1B	Chri-	1g	-tes:
.	.	2G	ut	.	.	.	.	.	.	.	.
.	.	2G	vi-	.	.	1e	ut	1G	-sto,	2r	.
2E	-gi-	2E	-gi-	.	.	.	.	.	.	2g	ut-
=25	=25	=25	=25	=25	=25	=25	=25	=25	=25	=25	=25
1F	-le-	1A	-le-	1r	.	1c	vi-	0r	.	2f	-vi-
.	.	.	.	.	.	.	.	.	.	2f	-gi-
[1E	-mus	[1G	-mus	1B	ut	1e	-gi-	.	.	1g	-le-
=26	=26	=26	=26	=26	=26	=26	=26	=26	=26	=26	=26
2E]	.	1G]	.	1G	vi-	0g	-le-	1r	.	1.e	-mus
2E	cum	.	.	.	.	.	.	.	.	.	.
1E	Chri-	1r	.	1B	-gi-	.	.	1G	ut	.	.
.	.	.	.	.	.	.	.	.	.	2e	cum
=27	=27	=27	=27	=27	=27	=27	=27	=27	=27	=27	=27
0D	-sto,	1.F	cum	0d	-le-	2f	-us	1.A	vi-	1f	Chri-
.	.	.	.	.	.	2d	cum	.	.	.	.
.	.	.	.	.	.	1f	Chri-	.	.	1d	-sto,
.	.	4E	.	.	.	.	.	2B	-gi-	.	.
.	.	4D	.	.	.	.	.	.	.	.	.
=28	=28	=28	=28	=28	=28	=28	=28	=28	=28	=28	=28
0r	.	0A	Chri-	2c	-us	1e	-sto,	1c	-le-	2r	.
.	.	.	.	2A	cum	.	.	.	.	2e	et
.	.	.	.	1c	Chri-	1r	.	2A	-mus	2e	re-
.	.	.	.	.	.	.	.	2A	cum	2e	-qui-
=29	=29	=29	=29	=29	=29	=29	=29	=29	=29	=29	=29
1GG	et	1G	-sto,	1B	-sto,	1d	et	1B	Chri-	2.g	-es-
.	.	.	.	.	.	.	.	.	.	4a	.
2GG	re-	2r	.	1r	.	2d	re-	1G	-sto,	1b	.
2GG	-qui-	2G	et	.	.	2d	-qui-	.	.	.	.
=30	=30	=30	=30	=30	=30	=30	=30	=30	=30	=30	=30
1AA	-es-	2E	re-	1A	et	1.c	-es-	0r	.	1cc	-ca-
.	.	2E	-qui-	.	.	.	.	.	.	.	.
1FF	-ca-	1F	-es-	2A	re-	.	.	.	.	1a	-mus
.	.	.	.	2A	-qui-	4B	.	.	.	.	.
.	.	.	.	.	.	4A	.	.	.	.	.
=31	=31	=31	=31	=31	=31	=31	=31	=31	=31	=31	=31
1GG	-mus.	1D	-ca-	1.G	-es-	1B	-ca-	1d	et	1r	.
1r	.	[1C	-mus	.	.	1c	-mus	2e	re-	1g	in
.	.	.	.	4F	.	.	.	2e	-qui-	.	.
.	.	.	.	4E	.	.	.	.	.	.	.
=32	=32	=32	=32	=32	=32	=32	=32	=32	=32	=32	=32
1FF	et	2C]	.	1F	-ca-	1r	.	1c	-es-	1a	pa-
.	.	2D	in	.	.	.	.	.	.	.	.
1C	re-	[1E	pa-	1G	-mus	1c	in	1c	-ca-	2.g	-ce
.	.	.	.	.	.	.	.	.	.	4a	.
=33	=33	=33	=33	=33	=33	=33	=33	=33	=33	=33	=33
2.GG	-qui-	2E]	.	1r	.	0d	pa-	0B	-mus	1b	.
.	.	4D	.	.	.	.	.	.	.	.	.
4AA	.	4C	.	.	.	.	.	.	.	.	.
1BB	.	1D	.	1G	in	.	.	.	.	1r	.
=34	=34	=34	=34	=34	=34	=34	=34	=34	=34	=34	=34
1AA	-es-	1E	.	0A	pa-	1c	.	1r	.	0cc	et
1FF	-ca-	1F	-ce,	.	.	1A	.	2.c	in	.	.
.	.	.	.	.	.	.	.	4d	.	.	.
=35	=35	=35	=35	=35	=35	=35	=35	=35	=35	=35	=35
1GG	-mus	2r	.	1G	.	0B	.	4e	.	1b	re-
.	.	.	.	.	.	.	.	4d	.	.	.
.	.	2D	in	.	.	.	.	2.g	pa-	.	.
1r	.	1G	pa-	1E	.	.	.	.	.	1g	-qui-
.	.	.	.	.	.	.	.	4f	.	.	.
.	.	.	.	.	.	.	.	[2e	.	.	.
=36	=36	=36	=36	=36	=36	=36	=36	=36	=36	=36	=36
0D	in	2F	.	0F	.	0A	.	2e]	.	1a	-es-
.	.	2E	.	.	.	.	.	4d	.	.	.
.	.	.	.	.	.	.	.	4c	.	.	.
.	.	1D	.	.	.	.	.	1d	.	2a	-ca-
.	.	.	.	.	.	.	.	.	.	2b	.
=37	=37	=37	=37	=37	=37	=37	=37	=37	=37	=37	=37
[0AA	pa-	[0A	.	[0El	-ce.	[0c	.	[0el	-ce.	1cc	.
.	.	.	.	.	.	.	.	.	.	2a	-mus
.	.	.	.	.	.	.	.	.	.	[2cc	in
=38	=38	=38	=38	=38	=38	=38	=38	=38	=38	=38	=38
0AA]	.	0A]	.	0E_	.	0c]	.	0e_	.	4cc]	.
.	.	.	.	.	.	.	.	.	.	4b	.
.	.	.	.	.	.	.	.	.	.	4a	.
.	.	.	.	.	.	.	.	.	.	4g	.
.	.	.	.	.	.	.	.	.	.	1a	pa-
=39	=39	=39	=39	=39	=39	=39	=39	=39	=39	=39	=39
00El	-ce.	00El	-ce.	00E]	.	00Bl	-ce.	00e]	.	00gl	-ce.
==	==	==	==	==	==	==	==	==	==	==	==
*-	*-	*-	*-	*-	*-	*-	*-	*-	*-	*-	*-
!!!system-decoration: [*]
!!!RDF**kern: i = editorial accidental
!!!RDF**kern: l = terminal long
!!!ENC: Benjamin Ory
!!!END: 2021/4/19
!!!EED: Benjamin Ory
!!!EEV: 2021/05/02
!!!YEC: Copyright 2021 Benjamin Ory, All Rights Reserved
!!!ONB: Translated from MusicXML on 2021/05/02
